assets/status.svg

<svg width="16" height="20" viewBox="0 0 16 20" fill="none" xmlns="http://www.w3.org/2000/svg">
<path fill-rule="evenodd" clip-rule="evenodd" d="M0 1C0 0.447715 0.447715 0 1 0H15C15.5523 0 16 0.447716 16 1V18.5C15.1716 18.5 14.5001 19.1715 14.5 19.9999H13.5C13.4999 19.1715 12.8284 18.5 12 18.5C11.1716 18.5 10.5001 19.1715 10.5 19.9999H9.5C9.49994 19.1715 8.82839 18.5 8 18.5C7.17161 18.5 6.50006 19.1715 6.5 19.9999H5.5C5.49994 19.1715 4.82839 18.5 4 18.5C3.17161 18.5 2.50006 19.1715 2.5 19.9999H1.5C1.49994 19.1715 0.828392 18.5 0 18.5V1ZM9.41635 11.7884C8.55361 12.3444 7.47039 12.5936 6.32965 12.3827C4.52748 12.0472 3.08957 10.5327 2.85951 8.71142C2.49524 5.82612 4.94926 3.42012 7.85383 3.88023C9.656 4.1678 11.1035 5.644 11.4007 7.43652C11.5828 8.54846 11.324 9.57413 10.7872 10.4273L12.8961 12.5265C13.2699 12.9004 13.2699 13.5138 12.8961 13.8877C12.5126 14.2711 11.8991 14.2711 11.5253 13.8973L9.41635 11.7884ZM4.70588 8.05882C4.70588 6.76 5.76 5.70588 7.05882 5.70588C8.35765 5.70588 9.41177 6.76 9.41177 8.05882C9.41177 9.35765 8.35765 10.4118 7.05882 10.4118C5.76 10.4118 4.70588 9.35765 4.70588 8.05882Z" fill="white"/>
</svg>

<svg width="16" height="20" fill="none" xmlns="http://www.w3.org/2000/svg"><path fill-rule="evenodd" clip-rule="evenodd" d="M0 1a1 1 0 0 1 1-1h14a1 1 0 0 1 1 1v17.5a1.5 1.5 0 0 0-1.5 1.5h-1a1.5 1.5 0 0 0-3 0h-1a1.5 1.5 0 0 0-3 0h-1a1.5 1.5 0 0 0-3 0h-1A1.5 1.5 0 0 0 0 18.5V1Zm9.416 10.788a4.236 4.236 0 0 1-3.086.595c-1.803-.336-3.24-1.85-3.47-3.672a4.318 4.318 0 0 1 4.994-4.83c1.802.287 3.25 1.763 3.547 3.556a4.248 4.248 0 0 1-.614 2.99l2.11 2.1a.97.97 0 0 1-1.37 1.37l-2.11-2.109Zm-4.71-3.73a2.354 2.354 0 1 1 4.707.003 2.354 2.354 0 0 1-4.707-.002Z" fill="#fff"/></svg>
